X:2341
T:Dance tune 
C:Traditional
O:Isle of Man
C:William Caine, Jurby.
S:Collected by Mona Douglas 
B:Kiaull Vannin #341 
M:2/4  
L:1/4
K:G 
A/B/ c|A c|B G-|G z/|G/A/ B|G B|A F-|F z/|
A/B/ c|A c|d c |c A |F2-|F2 |
A/B/ c|A c|B G-|G z/ |G/A/ B|G B|A F-|F z/|
A/B/ c|A c|c B |G/F/ D|F2-|F2 ||
G2 |A2 |A2 |G2 |A A |B B |A2 |G2 ||

